app/static/images/icons/climate_variables.svg

<?xml version="1.0" encoding="UTF-8"?>
<svg width="48" height="48" fill="none" version="1.1" viewBox="0 0 48 48" xmlns="http://www.w3.org/2000/svg">
 <path d="m26.39 34.042v-0.2988c0.0145-0.7359 0.0364-1.4718 0.0509-2.2078 0.0364-2.3972 0.0437-4.7945 0.0582-7.1845 0.0219-5.1369-0.0364-10.274-0.0509-15.418v-2.0184c0-0.85981 0.0728-1.7488-0.3421-2.543-1.0989-2.1058-4.1992-1.5593-4.876 0.57564-0.2474 0.77236-0.1892 1.5957-0.1819 2.3972 0.0218 4.5686 0 9.1445 0.0363 13.713 0.0219 2.7325 0.051 5.4649 0.1092 8.1974 0.0146 0.561 0.0291 1.1221 0.0437 1.6831 0 0.2332 0.0145 0.4664 0.0218 0.7068 0 0.1166 0 0.2259 0.0073 0.3425 0 0.0874 0.0145 0.1676 0.0218 0.255-0.0145-0.1093 0 0.0874 0 0.1239 0.0291 0.408 0.0655 0.8234 0.1237 1.2241 0.0219 0.1385 0.0437 0.2842 0.0583 0.4226 0.0218 0.1749-0.0437-0.2331 0.0145 0.153 0 0.0365 0.0146 0.0802 0.0218 0.1166-0.6622 0.1166-1.3318 0.7214-1.7175 1.1804-0.6331 0.7578-1.0989 1.6541-1.3755 2.6013-0.5749 1.9747 0.3639 4.2189 1.9286 5.4795 1.5356 1.2314 3.8281 1.5738 5.6621 0.8452 2.1323-0.8525 3.3331-3.2571 3.3477-5.4867 0.0145-1.7124-1.0989-4.4375-2.9766-4.8456l0.0146-0.0145zm-3.6534-27.747c0.0073-0.40076 0.0364-0.89624 0.3056-1.2241 0.1238-0.15302 0.4585-0.31332 0.6405-0.33518 0.866-0.11658 1.0843 0.68493 1.0698 1.4937v0.40076 1.6467c0 3.4756-0.0218 6.9514-0.0146 10.427-0.342-0.0291-0.6986 0-1.0261 0.0146-0.2766 0.0146-0.6186 0-0.9461 0.0437v-10.157-1.6322c0-0.22588-0.0146-0.45176 0-0.67764h-0.0291zm2.9402 36.338c-1.1863 0.6267-2.8092 0.4737-3.9518-0.1748-1.2299-0.6995-2.0305-2.2151-1.8922-3.6287 0.0728-0.7651 0.4221-1.5812 0.8151-2.2297 0.211-0.3497 0.4585-0.6776 0.7423-0.9618 0.2183-0.2113 0.4731-0.3716 0.6768-0.5756 0.2184-0.0219 0.4367-0.1749 0.4367-0.4445 0-0.1312 0.0145-0.2623 0.0218-0.3935 0-0.0218 0.0073-0.0947 0.0073-0.1166 0-0.0655 0.0146-0.1311 0.0146-0.1894 0-0.0656 0.0145-0.1384 0.0218-0.204 0-0.051 0.0364-0.3352 0.0145-0.1457 0.0874-0.8599 0.1019-1.7197 0.1092-2.5795 0.0218-2.4774 0.051-4.9621 0.0582-7.4395v-3.3008c0.2693 0.0292 0.5531 0.0292 0.7933 0.0438 0.3784 0.0291 0.8151-0.0656 1.1863 0.0291 0 0.8307 0.0072 1.6613 0.0218 2.492 0.0437 3.8691 0.0218 7.7455 0.2038 11.607 0 0.0364 0.0072 0.0947 0.0145 0.1457 0 0.0146-0.0073 0.0364-0.0073 0.0583 0 0.4226 0.3057 0.6485 0.6259 0.6776 0.4658 0.3352 0.9025 0.6267 1.2227 1.1367 0.3639 0.5902 0.6404 1.2752 0.7569 1.9601 0.2474 1.4792-0.524 3.5339-1.8922 4.2553v-0.0219zm-6.6737-10.675s0-0.0364-0.0072-0.051c0-0.0073 0 0 0.0072 0.051zm14.439 6.23c-0.3857-2.5503-1.7102-5.5888-4.3957-6.3028v-0.2186c0.0073-0.7432 0.0219-1.4792 0.0291-2.2224 0.0291-2.3463 0.0146-4.6852 0.0146-7.0315 0-4.6997-0.0801-9.3922-0.0873-14.092 0-2.3972 0.2911-5.0641-1.5575-6.9222-1.2445-1.246-3.0857-1.6467-4.7814-1.2533-1.7248 0.40076-3.1148 1.6176-3.7407 3.2643-0.7715 2.0475-0.5167 4.3646-0.5022 6.5214 0.0146 2.3972 0.0073 4.7872 0.0364 7.1845 0.0291 2.8563 0.0509 5.7199 0.1383 8.5762 0.0655 2.1932 0.0873 4.1314 0.4075 6.208 0 0.0219 0.0364 0.2113 0.0437 0.2478 0 0.0291 0.0146 0.0656 0.0146 0.0947-0.6114 0.1385-1.1863 0.5174-1.6957 0.9473-1.0262 0.8598-1.6957 2.1568-2.0523 3.4319-0.9389 3.3955 0.2765 7.3302 3.0566 9.5089 2.6927 2.113 6.7973 2.4191 9.8685 0.9982 1.5938-0.7359 2.8601-2.1422 3.8062-3.5995 1.0116-1.5666 1.6884-3.4684 1.4046-5.3483l-0.0073 0.0073zm-2.2779 3.3809c-0.6404 1.3262-1.6083 2.696-2.831 3.5558-2.2633 1.5958-5.7566 1.603-8.151 0.2915-2.6418-1.45-3.8935-4.5687-3.617-7.4832 0.131-1.3626 0.6259-2.6305 1.4992-3.6797 0.262-0.3206 0.5968-0.6485 0.8952-0.8671 0.211-0.153 0.3493-0.2769 0.524-0.3935 0.2547 0.0365 0.5603-0.1239 0.5531-0.4445-0.0073-0.612 0.0436-1.2168 0.0655-1.8289 0.0363-1.0274 0.0218-2.0475 0.0218-3.0676-0.0073-2.6741 0-5.3483 0-8.0224 0-4.095 0.0145-8.1827-0.051-12.278-0.0291-1.5812 0.0874-3.5194 1.2736-4.6415 0.9825-0.93268 2.4744-1.2533 3.748-0.82338 0.6405 0.2186 1.2372 0.70679 1.6084 1.3116 0.5094 0.83795 0.6041 1.8362 0.6113 2.798 0 0.60478-0.0291 1.2096-0.0291 1.8143-0.0145 4.3865 0 8.7802 0.0728 13.167 0.0582 3.7453 0.0728 7.5051 0.2547 11.25-0.0145 0.0365-0.0291 0.0729-0.0436 0.1093-0.1165 0.4227 0.1455 0.838 0.5458 0.9691 2.1833 0.685 3.093 2.5576 3.5296 4.6415 0.2693 1.2606 0.0728 2.4629-0.4876 3.6287l0.0073-0.0073z" fill="#000"/>
</svg>

<svg width="48" height="48" viewBox="0 0 48 48" fill="none" xmlns="http://www.w3.org/2000/svg">
<path d="M26.3899 34.0422C26.3899 33.9402 26.3899 33.8454 26.3899 33.7434C26.4044 33.0075 26.4263 32.2716 26.4408 31.5356C26.4772 29.1384 26.4845 26.7411 26.499 24.3511C26.5209 19.2142 26.4626 14.0772 26.4481 8.93294C26.4481 8.26258 26.4481 7.58494 26.4481 6.91458C26.4481 6.05477 26.5209 5.16582 26.106 4.37159C25.0071 2.2658 21.9068 2.81229 21.23 4.94723C20.9826 5.71959 21.0408 6.54297 21.0481 7.34448C21.0699 11.9131 21.0481 16.489 21.0844 21.0576C21.1063 23.7901 21.1354 26.5225 21.1936 29.255C21.2082 29.816 21.2227 30.3771 21.2373 30.9381C21.2373 31.1713 21.2518 31.4045 21.2591 31.6449C21.2591 31.7615 21.2591 31.8708 21.2664 31.9874C21.2664 32.0748 21.2809 32.155 21.2882 32.2424C21.2737 32.1331 21.2882 32.3298 21.2882 32.3663C21.3173 32.7743 21.3537 33.1897 21.4119 33.5904C21.4338 33.7289 21.4556 33.8746 21.4702 34.013C21.492 34.1879 21.4265 33.7799 21.4847 34.166C21.4847 34.2025 21.4993 34.2462 21.5065 34.2826C20.8443 34.3992 20.1747 35.004 19.789 35.463C19.1559 36.2208 18.6901 37.1171 18.4135 38.0643C17.8386 40.039 18.7774 42.2832 20.3421 43.5438C21.8777 44.7752 24.1702 45.1176 26.0042 44.389C28.1365 43.5365 29.3373 41.1319 29.3519 38.9023C29.3664 37.1899 28.253 34.4648 26.3753 34.0567L26.3899 34.0422ZM22.7365 6.29523C22.7438 5.89447 22.7729 5.39899 23.0421 5.0711C23.1659 4.91808 23.5006 4.75778 23.6826 4.73592C24.5486 4.61934 24.7669 5.42085 24.7524 6.22965C24.7524 6.36081 24.7524 6.49925 24.7524 6.63041C24.7524 7.17689 24.7524 7.72338 24.7524 8.27715C24.7524 11.7528 24.7306 15.2285 24.7378 18.7041C24.3958 18.675 24.0392 18.7041 23.7117 18.7187C23.4351 18.7333 23.0931 18.7187 22.7656 18.7624C22.7656 15.3742 22.7656 11.9933 22.7656 8.60504C22.7656 8.05856 22.7656 7.51936 22.7656 6.97287C22.7656 6.74699 22.751 6.52111 22.7656 6.29523H22.7365ZM25.6767 42.6329C24.4904 43.2596 22.8675 43.1066 21.7249 42.4581C20.495 41.7586 19.6944 40.243 19.8327 38.8294C19.9055 38.0643 20.2548 37.2482 20.6478 36.5997C20.8588 36.25 21.1063 35.9221 21.3901 35.6379C21.6084 35.4266 21.8632 35.2663 22.0669 35.0623C22.2853 35.0404 22.5036 34.8874 22.5036 34.6178C22.5036 34.4866 22.5181 34.3555 22.5254 34.2243C22.5254 34.2025 22.5327 34.1296 22.5327 34.1077C22.5327 34.0422 22.5473 33.9766 22.5473 33.9183C22.5473 33.8527 22.5618 33.7799 22.5691 33.7143C22.5691 33.6633 22.6055 33.3791 22.5836 33.5686C22.671 32.7087 22.6855 31.8489 22.6928 30.9891C22.7146 28.5117 22.7438 26.027 22.751 23.5496C22.751 22.4494 22.751 21.3491 22.751 20.2488C23.0203 20.278 23.3041 20.278 23.5443 20.2926C23.9227 20.3217 24.3594 20.227 24.7306 20.3217C24.7306 21.1524 24.7378 21.983 24.7524 22.8137C24.7961 26.6828 24.7742 30.5592 24.9562 34.4211C24.9562 34.4575 24.9634 34.5158 24.9707 34.5668C24.9707 34.5814 24.9634 34.6032 24.9634 34.6251C24.9634 35.0477 25.2691 35.2736 25.5893 35.3027C26.0551 35.6379 26.4918 35.9294 26.812 36.4394C27.1759 37.0296 27.4524 37.7146 27.5689 38.3995C27.8163 39.8787 27.0449 41.9334 25.6767 42.6548V42.6329ZM19.003 31.9582C19.003 31.9582 19.003 31.9218 18.9958 31.9072C18.9958 31.8999 18.9958 31.9072 19.003 31.9582ZM33.4419 38.1882C33.0562 35.6379 31.7317 32.5994 29.0462 31.8854C29.0462 31.8125 29.0462 31.7396 29.0462 31.6668C29.0535 30.9236 29.0681 30.1876 29.0753 29.4444C29.1044 27.0981 29.0899 24.7592 29.0899 22.4129C29.0899 17.7132 29.0098 13.0207 29.0026 8.32087C29.0026 5.92362 29.2937 3.25676 27.4451 1.39871C26.2006 0.152718 24.3594 -0.248039 22.6637 0.145432C20.9389 0.546188 19.5489 1.76303 18.923 3.40978C18.1515 5.45728 18.4063 7.77438 18.4208 9.93118C18.4354 12.3284 18.4281 14.7184 18.4572 17.1157C18.4863 19.972 18.5081 22.8356 18.5955 25.6919C18.661 27.8851 18.6828 29.8233 19.003 31.8999C19.003 31.9218 19.0394 32.1112 19.0467 32.1477C19.0467 32.1768 19.0613 32.2133 19.0613 32.2424C18.4499 32.3809 17.875 32.7598 17.3656 33.1897C16.3394 34.0495 15.6699 35.3465 15.3133 36.6216C14.3744 40.0171 15.5898 43.9518 18.3699 46.1305C21.0626 48.2435 25.1672 48.5496 28.2384 47.1287C29.8322 46.3928 31.0985 44.9865 32.0446 43.5292C33.0562 41.9626 33.733 40.0608 33.4492 38.1809L33.4419 38.1882ZM31.164 41.5691C30.5236 42.8953 29.5557 44.2651 28.333 45.1249C26.0697 46.7207 22.5764 46.7279 20.182 45.4164C17.5402 43.9664 16.2885 40.8477 16.565 37.9332C16.696 36.5706 17.1909 35.3027 18.0642 34.2535C18.3262 33.9329 18.661 33.605 18.9594 33.3864C19.1704 33.2334 19.3087 33.1095 19.4834 32.9929C19.7381 33.0294 20.0437 32.869 20.0365 32.5484C20.0292 31.9364 20.0801 31.3316 20.102 30.7195C20.1383 29.6921 20.1238 28.672 20.1238 27.6519C20.1165 24.9778 20.1238 22.3036 20.1238 19.6295C20.1238 15.5345 20.1383 11.4468 20.0728 7.35177C20.0437 5.7706 20.1602 3.83239 21.3464 2.71028C22.3289 1.7776 23.8208 1.457 25.0944 1.8869C25.7349 2.1055 26.3316 2.59369 26.7028 3.19847C27.2122 4.03642 27.3069 5.03466 27.3141 5.99648C27.3141 6.60126 27.285 7.20604 27.285 7.81082C27.2705 12.1973 27.285 16.591 27.3578 20.9775C27.416 24.7228 27.4306 28.4826 27.6125 32.2278C27.598 32.2643 27.5834 32.3007 27.5689 32.3371C27.4524 32.7598 27.7144 33.1751 28.1147 33.3062C30.298 33.9912 31.2077 35.8638 31.6443 37.9477C31.9136 39.2083 31.7171 40.4106 31.1567 41.5764L31.164 41.5691Z" fill="black"/>
</svg>
